svgs/light/image-polaroid-user.svg

<svg xmlns="http://www.w3.org/2000/svg" viewBox="0 0 448 512"><!-- Font Awesome Pro 6.0.0-alpha2 by @fontawesome - https://fontawesome.com License - https://fontawesome.com/license (Commercial License) --><path d="M384 32H64C28.654 32 0 60.654 0 96V416C0 451.346 28.654 480 64 480H384C419.346 480 448 451.346 448 416V96C448 60.654 419.346 32 384 32ZM416 416C416 433.645 401.645 448 384 448H64C46.355 448 32 433.645 32 416V384H416V416ZM146.938 352C153.549 333.4 171.131 320 192 320H256C276.869 320 294.451 333.4 301.062 352H146.938ZM416 352H334.387C326.973 315.484 294.703 288 256 288H192C153.297 288 121.027 315.484 113.613 352H32V96C32 78.355 46.355 64 64 64H384C401.645 64 416 78.355 416 96V352ZM224 128C188.654 128 160 156.654 160 192S188.654 256 224 256S288 227.346 288 192S259.346 128 224 128ZM224 224C206.355 224 192 209.645 192 192S206.355 160 224 160S256 174.355 256 192S241.645 224 224 224Z"/></svg>

<svg xmlns="http://www.w3.org/2000/svg" viewBox="0 0 448 512"><!--! Font Awesome Pro 6.3.0 by @fontawesome - https://fontawesome.com License - https://fontawesome.com/license (Commercial License) Copyright 2023 Fonticons, Inc. --><path d="M384 32H64C28.65 32 0 60.65 0 96v320c0 35.35 28.65 64 64 64h320c35.35 0 64-28.65 64-64V96C448 60.65 419.3 32 384 32zM416 416c0 17.64-14.36 32-32 32H64c-17.64 0-32-14.36-32-32v-32h384V416zM146.9 352C153.5 333.4 171.1 320 192 320h64c20.87 0 38.45 13.4 45.06 32H146.9zM416 352h-81.61C326.1 315.5 294.7 288 256 288H192c-38.7 0-70.97 27.48-78.39 64H32V96c0-17.64 14.36-32 32-32h320c17.64 0 32 14.36 32 32V352zM224 128C188.7 128 160 156.7 160 192s28.65 64 64 64s64-28.65 64-64S259.3 128 224 128zM224 224C206.4 224 192 209.6 192 192s14.36-32 32-32s32 14.36 32 32S241.6 224 224 224z"/></svg>
